svgs/sharp-regular/arrow-down-up-across-line.svg

<svg xmlns="http://www.w3.org/2000/svg" viewBox="0 0 576 512"><!--! Font Awesome Pro 6.6.0 by @fontawesome - https://fontawesome.com License - https://fontawesome.com/license (Commercial License) Copyright 2024 Fonticons, Inc. --><path d="M160 505.9l17-17 96-96 17-17L256 342.1l-17 17-55 55L184 280l368 0c13.3 0 24-10.7 24-24s-10.7-24-24-24l-112 0 0-134.1 55 55 17 17L545.9 136l-17-17L433 23l-17-17L399 23l-96 96-17 17L320 169.9l17-17 55-55L392 232l-208 0-48 0L24 232c-13.3 0-24 10.7-24 24s10.7 24 24 24l112 0 0 134.1L81 359l-17-17L30.1 376l17 17 96 96 17 17zM136 56l0 136 48 0 0-136 0-24-48 0 0 24zM392 320l0 136 0 24 48 0 0-24 0-136-48 0z"/></svg>

<svg xmlns="http://www.w3.org/2000/svg" viewBox="0 0 576 512"><!--! Font Awesome Pro 6.4.0 by @fontawesome - https://fontawesome.com License - https://fontawesome.com/license (Commercial License) Copyright 2023 Fonticons, Inc. --><path d="M160 505.9l17-17 96-96 17-17L256 342.1l-17 17-55 55V280H552c13.3 0 24-10.7 24-24s-10.7-24-24-24H440V97.9l55 55 17 17L545.9 136l-17-17L433 23l-17-17L399 23l-96 96-17 17L320 169.9l17-17 55-55V232H184 136 24c-13.3 0-24 10.7-24 24s10.7 24 24 24H136V414.1L81 359l-17-17L30.1 376l17 17 96 96 17 17zM136 56V192h48V56 32H136V56zM392 320V456v24h48V456 320H392z"/></svg>
